X: 309
T: MY DEAR DARLING
T: Sa mhuirnin dhileas
B: O'Neill's 309
M: C
L: 1/8
Z: 1999 by John Chambers <jc@trillian.mit.edu>
N: "Tenderly"
K:D
A \
| d2(d>e) dc(c>d) | B>A B(d/c/) BAFB | A>G(FE) (D>E)FA | B2 (c3/2B//c//) d3A|
| d2f>d (dc)(c>d) | (BA)(B=c) BAFB | A>GFE D>EFA | B2 {d}c>c {c}d3 ||
|| A \
| d2(d>e) f2f>a | g2(f>e) fd B>c | d2(f>d) dccd | BAB=c BAFf |
| (a>g)fe (dc)c>d | BA (Bd/c/) BAFB | A>GFE D>EFA | B2 {d}c>c {c}d3 ||


